static/assets/images/networks/mode-mono.svg

<svg width="275" height="256" viewBox="0 0 275 256" fill="none" xmlns="http://www.w3.org/2000/svg">
<path d="M144.737 146.773L195.82 0H275V256H221.362V128.853L242.647 55.4667L227.322 50.3467L157.508 256H116.641L47.678 50.3467L32.3529 55.4667L53.6378 128V256H0V0H80.8824L127.709 146.773V189.44H144.737V146.773Z" fill="black"/>
</svg>

<svg xmlns="http://www.w3.org/2000/svg" fill="none" viewBox="0 0 275 256"><path fill="#000" d="M144.737 146.773 195.82 0H275v256h-53.638V128.853l21.285-73.386-15.325-5.12L157.508 256h-40.867L47.678 50.347l-15.325 5.12L53.638 128v128H0V0h80.882l46.827 146.773v42.667h17.028z"/></svg>
